svgs/amaze.svg

<svg width="24" height="24" viewBox="0 0 24 24" fill="none" xmlns="http://www.w3.org/2000/svg">
<path d="M11.3059 14.9575C13.0219 14.9575 14.4131 13.5663 14.4131 11.8503C14.4131 13.5664 15.8042 14.9575 17.5202 14.9575C15.8042 14.9575 14.4131 16.3486 14.4131 18.0646C14.4131 18.0647 14.4131 18.0647 14.4131 18.0647C14.4131 16.3486 13.0219 14.9575 11.3059 14.9575Z" fill="black"/>
<path d="M3.95084 20C2.97542 20 2 19.0246 2 18.0492V6.99823C2 6.02281 2.97543 5.04744 3.95084 5.04744H19.7265C20.7019 5.04744 21.6773 6.02283 21.6773 6.99823V18.0492C21.6773 19.0246 20.7019 20 19.7265 20H10.2579L11.9829 18.275C12.6663 18.7612 13.5511 19.0768 14.4193 19.0768C15.5117 19.0768 16.6305 18.5772 17.341 17.8666C18.0516 17.156 18.5512 16.0373 18.5512 14.9449C18.5512 13.8524 18.0516 12.7337 17.341 12.0231C16.6305 11.3126 15.5117 10.8129 14.4193 10.8129C13.8476 10.8129 13.2687 10.9497 12.7448 11.1821C11.685 10.6151 10.9639 9.49746 10.9639 8.21146C10.9639 10.0708 9.45662 11.5781 7.59726 11.5781C8.905 11.5781 10.0386 12.3238 10.5961 13.4131C10.4007 13.8984 10.2873 14.4246 10.2873 14.9449C10.2873 15.7807 10.5799 16.632 11.0356 17.304L8.33958 20H3.95084ZM8.10412 16.2493V16.2493C8.10412 15.5289 8.68814 14.9449 9.40858 14.9449C8.68813 14.9449 8.10412 14.3608 8.10412 13.6404C8.10412 14.3608 7.52008 14.9449 6.79964 14.9449C7.52009 14.9449 8.10412 15.5289 8.10412 16.2493Z" fill="black"/>
<path d="M3.95084 20C2.97542 20 2 19.0246 2 18.0492V6.99823C2 6.02281 2.97543 5.04744 3.95084 5.04744H19.7265C20.7019 5.04744 21.6773 6.02283 21.6773 6.99823V18.0492C21.6773 19.0246 20.7019 20 19.7265 20H10.2579L11.9829 18.275C12.6663 18.7612 13.5511 19.0768 14.4193 19.0768C15.5117 19.0768 16.6305 18.5772 17.341 17.8666C18.0516 17.156 18.5512 16.0373 18.5512 14.9449C18.5512 13.8524 18.0516 12.7337 17.341 12.0231C16.6305 11.3126 15.5117 10.8129 14.4193 10.8129C13.8476 10.8129 13.2687 10.9497 12.7448 11.1821C11.685 10.6151 10.9639 9.49746 10.9639 8.21146C10.9639 10.0708 9.45662 11.5781 7.59726 11.5781C8.905 11.5781 10.0386 12.3238 10.5961 13.4131C10.4007 13.8984 10.2873 14.4246 10.2873 14.9449C10.2873 15.7807 10.5799 16.632 11.0356 17.304L8.33958 20H3.95084ZM8.10412 16.2493V16.2493C8.10412 15.5289 8.68814 14.9449 9.40858 14.9449C8.68813 14.9449 8.10412 14.3608 8.10412 13.6404C8.10412 14.3608 7.52008 14.9449 6.79964 14.9449C7.52009 14.9449 8.10412 15.5289 8.10412 16.2493Z" fill="black"/>
<path d="M2.00049 4.55893C2.00049 3.77946 2.77997 3 3.55944 3H8.29947L9.2803 3.9303H3.40385C2.88797 3.9303 2.37207 4.20314 2.00049 4.60452V4.55893Z" fill="black"/>
</svg>

<svg xmlns="http://www.w3.org/2000/svg" width="24" height="24" fill="none" viewBox="0 0 24 24"><path fill="#000" d="M11.306 14.958a3.107 3.107 0 0 0 3.107-3.108 3.107 3.107 0 0 0 3.107 3.108 3.107 3.107 0 0 0-3.107 3.107 3.107 3.107 0 0 0-3.107-3.108"/><path fill="#000" d="M3.95 20C2.976 20 2 19.025 2 18.05V6.997c0-.975.975-1.95 1.95-1.95h15.777c.975 0 1.95.975 1.95 1.95V18.05c0 .976-.975 1.951-1.95 1.951h-9.47l1.726-1.725c.683.486 1.568.802 2.436.802 1.093 0 2.212-.5 2.922-1.21.71-.711 1.21-1.83 1.21-2.922 0-1.093-.5-2.211-1.21-2.922-.71-.71-1.83-1.21-2.922-1.21-.571 0-1.15.137-1.674.37a3.366 3.366 0 0 1-1.781-2.972 3.367 3.367 0 0 1-3.367 3.367 3.37 3.37 0 0 1 3 1.835 4.138 4.138 0 0 0-.31 1.532c0 .836.293 1.687.749 2.359L8.34 20zm4.154-3.75c0-.721.584-1.305 1.305-1.305-.72 0-1.305-.584-1.305-1.305 0 .72-.584 1.305-1.304 1.305.72 0 1.304.584 1.304 1.304"/><path fill="#000" d="M3.95 20C2.976 20 2 19.025 2 18.05V6.997c0-.975.975-1.95 1.95-1.95h15.777c.975 0 1.95.975 1.95 1.95V18.05c0 .976-.975 1.951-1.95 1.951h-9.47l1.726-1.725c.683.486 1.568.802 2.436.802 1.093 0 2.212-.5 2.922-1.21.71-.711 1.21-1.83 1.21-2.922 0-1.093-.5-2.211-1.21-2.922-.71-.71-1.83-1.21-2.922-1.21-.571 0-1.15.137-1.674.37a3.366 3.366 0 0 1-1.781-2.972 3.367 3.367 0 0 1-3.367 3.367 3.37 3.37 0 0 1 3 1.835 4.138 4.138 0 0 0-.31 1.532c0 .836.293 1.687.749 2.359L8.34 20zm4.154-3.75c0-.721.584-1.305 1.305-1.305-.72 0-1.305-.584-1.305-1.305 0 .72-.584 1.305-1.304 1.305.72 0 1.304.584 1.304 1.304M2 4.559C2 3.779 2.78 3 3.56 3H8.3l.98.93H3.404c-.516 0-1.032.273-1.404.675z"/></svg>
